X:9441
T:Le Vieux Bal
M:3/4
L:1/8
Q:180
C:Traditionnel Poitou
R:Divers
Z:J.M HENRY
K:D
fg|:"D"a2 a2 f2|"Bm"b2 a2 ef|"Em"g2 ag fe|"D"f2 d2 fg|!
"D"a2 a2 f2|"Bm"b2 a2 ef|"Em"g2 ag fe|1 "D"d4 fg:|2 "D"d4 Ad|!
|:"D"f2 ed cd|"Em"e4 fg|"D"a2 a2 f2|"D"b2 a2  Ad|!
"D"f2 ed cd|"Em"e4 fg|"D"a2 ba ge|1 "D"d4 Ad:|2 "D"d4||
